X:170
M:6/8
L:1/8
K:G
|: d2f a2c | afc {c}B3 | c2e dBG | EAG {G}F3 | G2B d2g | bag fed | cAe dBG | DGF G3 :|

